!!!ONB: MCCC : IJH0447_01 : Extracted Monophonic Melody
!!!COM: Haydn, Joseph
!!!OPR: String Quartet in E-flat major
!!!OMV: 1
!!!SCT: Hob.III:46 ; Op.50 No.3
!!!ODT: 1787///
**kern
*thru
*k[b-e-a-]
*E-:
*clefG
*M6/8
8B-
=1
8e-
8e-
16e-
32d
32e-
8f
8r
8B-
=2
8f
8f
16f
32e-
32f
8g
8r
16g
32f
32g
=3
8a-
8r
16a-
32g
32a-
8b-
8r
8ee-
=4
8b-
8b-
8b-
8b-
8r
8ee-
=5
8gg
8bb-
8aa-
8ff
8dd
8b-
=6
16a
16b-
16cc
16b-
16cc
16dd
8ee-
8ee-
8ee-
=7
8gg
8bb-
8aa-
8ff
8dd
8b-
=8
16a
16b-
16cc
16b-
16cc
16dd
8ee-
4r
=9
2r
8r
8ccc
=10
8ff
8ff
16ff
32ee-
32ff
8gg
8gg
8r
=11
2r
8r
8ccc
=12
8ff
8ff
16ff
32ee-
32ff
8gg
8gg
8bb-
=13
8gg
8gg
8bb-
8ff
8ff
8bb-
=14
8ee-
8ee-
16ee-
32dd
32ee-
4dd
16bb-
32aa
32bb-
=15
8gg
8gg
16bb-
32aa
32bb-
8ff
8ff
16bb-
32aa
32bb-
=16
8ff
8ee
8ee
4ee
16ddd
16ccc
=17
16bb-
16aa
16gg
16ff
16ee
16ff
4ee-
8f
=18
8b-
8b-
16b-
32a
32b-
8cc
8r
8f
=19
8dd
8dd
16dd
32cc
32dd
8ee-
8r
16ee-
32dd
32ee-
=20
8ff
8r
16ff
32ee-
32ff
4.gg[
=21
8gg]
8ff
8ee-
8dd
8ff
8bb-
=22
4.ee
4.ee-[
=23
8ee-]
8dd
4dd-
8cc
8b-
=24
16a
16ff
16ee
16ff
16ee
16ff
16ee
16ff
16gg
16ff
16ee
16ff
=25
16ee
16ff
16ee-
16cc
16a
16f
16cc
16a
16f
16e-
16c
16A
=26
16B-
16f
16d
16b-
16f
16dd
16b-
16ff
16dd
16bb-
16aa
16gg
=27
16ee
16ff
16ee-
16cc
16a
16f
16cc
16a
16f
16e-
16c
16A
=28
16B-
16f
16d
16b-
16f
16dd
16b-
16ff
16dd
16bb-
16aa-
16ff
=29
16ff#
16gg
16ff#
16gg
16ff#
16gg
16aa
16bb-
16aa
16bb-
16aa
16bb-
=30
16ee
16ff
16ee
16ff
16ee
16ff
16aa
16bb-
16aa
16bb-
16aa
16bb-
=31
32ff#
16.gg
32aa
16.bb-
32ff#
16.gg
32aa
16.bb-
32ff#
16.gg
32aa
16.bb-
=32
32ff#
16.gg
32ee
16.ff
32dd
16.ee-
32cc#
16.dd
32b
16.cc
32ee-
16.cc
=33
4.b-
4.cc
=34
8b-
16r
16bb-
16bb-
16bb-
8bb-
16ee
16bb-
16bb-
16bb-
=35
8bb-
16ff
16bb-
16bb-
16bb-
8bb-
16gg
16bb-
16bb-
16bb-
=36
16bb-
16ff
16ddd
16ccc
16bb-
16aa
16bb-
16aa
16gg
16ff
16ee-
16dd
=37
8cc
8cc
16cc
32b
32cc
8ff
4r
=38
8cc
8cc
16cc
32b
32cc
8ff
8r
16cc
32b
32cc
=39
8ff
8r
16cc
32b
32cc
8ff
8r
16b-
32a
32b-
=40
8ee-
8ee-
16cc
32b-
32cc
8b-
8dd
8ff
=41
8ff
8gg
8aa
8bb-
8ddd
8fff
=42
8ff
8gg
8aa
8bb-
8r
8ff
=43
8ff
8gg
8aa
8bb-
8ddd
8fff
=44
8fff
8ggg
8aaa
8bbb-
4r
=45
8b-
8cc
8dd
8ee-
8r
8b-
=46
8aa-
8aa-
16aa-
32gg
32aa-
8gg
4r
=47
8gg
8aa
8bb
8ccc
8r
32ccc
32bb
32ccc
32ddd
=48
8eee-
8ccc
8ff#
8gg
8r
8cc
=49
8ee
8gg
8ff
8dd
8b
8g
=50
16f#
16g
16a
16g
16a
16b
8cc
8cc
8cc
=51
8ee
8gg
8ff
8dd
8b
8g
=52
16f#
16g
16a
16g
16a
16b
4cc
8cc
=53
16b
16cc
16dd
16cc
16dd
16ee
8ff
8ff
8ff
=54
16ff#
16gg
16aa
16gg
16ccc
16bb-
8aa
8aa
8aa
=55
16gg#
16aa
16bb-
16aa
16gg
16ee
4ff
8r
=56
2.r
=57
4r
4gg
8ff#
8dd
=58
16ff
16aa-
16gg
16ff
16ee-
16dd
8ee-
4r
=59
2r
8r
8cc
=60
8ff
8ff
16ff
32ee
32ff
8gg
8r
8cc
=61
8aa-
8aa-
16aa-
32gg
32aa-
8bb-
8r
16bb-
32aa-
32bb-
=62
2ccc
8bb-
8bb-[
=63
8bb-]
8aa
8aa
16aa-
16ccc
16bb-
16aa-
16gg
16ff
=64
4gg
2r
=65
2.r
=66
2.r
=67
4r
8e-
8ee-
8ee-
8ee-
=68
16dd-
16ee-
16ff
16ee-
16dd-
16cc
16b
16cc
16dd
16b
16a
16g
=69
4cc
4.r
8cc
=70
8ff
8ff
16ff
32ee
32ff
8aa-
8aa-
8aa-
=71
16ff#
16gg
16ff#
16gg
16ff#
16gg
16ee
16ff
16ee
16ff
16ee
16ff
=72
16dd
16ee-
16dd
16ee-
16dd
16ee-
16cc
16b
16cc
16b
16cc
16b
=73
16dd
16cc
16dd
16cc
16dd
16cc
16ee-
16dd
16ee-
16dd
16ee-
16dd
=74
8ff
8ee-
8ee-
8gg
8ff
8ff
=75
4.aa-
4gg
8ccc
=76
8dd
8dd
16dd
32cc
32dd
8.ff
16r
16dd
32cc
32dd
=77
8ee-
8r
16cc
32b
32cc
8ee-
8r
16c
32B
32c
=78
16G
16e-
16c
16g
16e-
16cc
16g
16ee-
16cc
16gg
16ee-
16ccc
=79
8gg
8ee-
8cc
8g
8e-
8c
=80
8G
8ee-
8ee-
8r
8dd
8dd
=81
8r
8dd-
8dd-
4dd-
8r
=82
2.r
=83
2r
8r
8cc
=84
8ff
8aa-
8ccc
8bb-
8gg
8ee
=85
16dd
16cc
16b
16cc
16dd
16ee
8ff
8ff
16ccc
16bb-
=86
8aa-
8aa-
16aa-
16gg
8ff
8ff
16ff
16ee-
=87
8dd
8dd
4.r
8ee-
=88
8gg
8bb-
8aa-
8ff
8dd
8b-
=89
16a
16b-
16cc
16b-
16cc
16dd
8ee-
8gg
8bb-
=90
8bb-
8bb-
8bb-
8bb-
8bb-
8bb-
=91
8bb-
8bb-
8bb-
8bb-
8bb-
8bb-
=92
8bb-
8aa-
8gg
8gg
8ff
8ee-
=93
16b-
16bb-
16aa
16bb-
16aa
16bb-
16aa
16bb-
16aa
16bb-
16aa
16bb-
=94
16aa
16bb-
16aa-
16ff
16dd
16b-
16a-
16f
16d
16B-
16A-
16B-
=95
16G
16e-
16B-
16g
16e-
16b-
16g
16ee-
16b-
16gg
16ee-
16bb-
=96
16aa
16bb-
16aa-
16ff
16dd
16b-
16a-
16f
16d
16B-
16A-
16B-
=97
16G
16e-
16B-
16g
16e-
16b-
16g
16ee-
16b-
16gg
16ee-
16bb-
=98
16b
16cc
16b
16cc
16b
16cc
16dd
16ee-
16dd
16ee-
16dd
16ee-
=99
16a
16b-
16a
16b-
16a
16b-
16dd
16ee-
16dd
16ee-
16dd
16ee-
=100
16b
16cc
16b
16cc
16ee
16ff
16cc#
16dd
16cc#
16dd
16ff#
16gg
=101
32dd
16.ee-
32gg
16.aa-
32ee
16.ff
32aa
16.bb-
32aa
16.bb-
32gg
16.aa-
=102
32ff#
16.gg
32ee
16.ff
32dd
16.ee-
32b
16.cc
32ee
16.ff
32gg
16.aa-
=103
8ccc
8r
32ccc
32bb
32ccc
32ddd
8eee-
8eee-
8eee-
=104
4.ee-
4.ff
=105
8ee-
16r
16ee-
16ee-
16ee-
8ee-
16a
16ee-
16ee-
16ee-
=106
8ee-
16b-
16ee-
16ee-
16ee-
8ee-
16cc
16ee-
16ee-
16ee-
=107
16ee-
16dd
16gg
16ff
16ee-
16dd
16ee-
16dd
16cc
16b-
16a-
16g
=108
8f
8f
16f
32e
32f
8cc
4r
=109
8ff
8ff
16ff
32ee
32ff
8ccc
8r
16ff
32ee
32ff
=110
8ccc
8r
16ff
32ee
32ff
8bb-
8r
16ee-
32dd
32ee-
=111
8aa-
8aa-
16ff
32ee-
32ff
8ee-
4r
=112
2.r
=113
2r
8r
8B-
=114
8e-
8e-
16e-
32d
32e-
8f
8r
8B-
=115
8f
8f
16f
32e-
32f
8g
8r
16g
32f
32g
=116
8a-
8r
16a-
32g
32a-
8b-
8r
8ee-
=117
8b-
8b-
8b-
8b-
8r
16dd
16ee-
=118
8b
8b
8b
8b
8r
16b
16cc
=119
8f
8f
16b
16cc
8g-
8g-
16dd
16ee-
=120
8g
8g
16dd
16ee-
8b-
8b-
16dd
16ee-
=121
8gg
8gg
4.r
16dd
16ee-
=122
8gg
8bb-
8aa-
8ff
8dd
8b-
=123
16a
16b-
16cc
16b-
16cc
16dd
8ee-
8ee-
8ee-
=124
8gg
8bb-
8aa-
8ff
8dd
8b-
=125
16a
16b-
16cc
16b-
16cc
16dd
16b
16cc
16dd
16cc
16dd
16ee-
=126
16dd
16ee-
16ff
16ee-
16ff
16gg
16ff
16gg
16aa-
16gg
16aa-
16bb-
=127
16aa-
16bb-
16ccc
16bb-
16aa-
16gg
16ff
16ee-
16dd
16cc
16b-
16a-
=128
8g
8r
8ee-
8ff
8ee-
8dd
=129
8ee-
8gg
8bb-
8b-
8cc
8dd
=130
8ee-
8gg
8bb-
8b-
8cc
8dd
=131
8ee-
8r
8b-
8b-
8cc
8dd
=132
8ee-
8gg
8bb-
8bb-
8ccc
8ddd
=133
8eee-
2r
8r
==
*-
